Obsidian-SemiLight/actions/22s/tools-media-optical-burn.svg

<svg viewBox="0 0 22 22" xmlns="http://www.w3.org/2000/svg"><path d="m11 3c-4.432 0-8 3.568-8 8s3.568 8 8 8c.692084 0 1.360349-.096052 2-.259766v-1.033203c-.633753.187534-1.303833.292969-2 .292969-3.878 0-7-3.122-7-7s3.122-7 7-7 7 3.122 7 7c0 .696167-.105435 1.366247-.292969 2h1.033203c.163714-.639651.259766-1.307916.259766-2 0-4.432-3.568-8-8-8zm0 2c-3.323996 0-6 2.676-6 6h3c0-1.662 1.3380018-3 3-3zm0 4c-1.1079987 0-2 .892-2 2s.8920013 2 2 2c1.107999 0 2-.892 2-2s-.892001-2-2-2zm0 1c.553999 0 1 .446 1 1s-.446001 1-1 1-1-.446-1-1 .446001-1 1-1zm3 1c0 .352948-.068732.687647-.181641 1h3.091797c.056152-.324868.089844-.658318.089844-1zm1.404297 2.041016c.913008.1859 1.595703.989484 1.595703 1.958984 0 .5815-.248941 1.100144-.642578 1.464844-.220341-.2609-.357422-.595044-.357422-.964844 0-.0818.012911-.160281.025391-.238281-.609637.3419-1.025391.986881-1.025391 1.738281 0 1.108.892005 2 2 2s2-.892 2-2c0-2.0775-1.573831-3.754784-3.595703-3.958984zm-2.404297.183593c-.530877.477181-1.226704.775391-2 .775391v3c.703343 0 1.373894-.127245 2-.347656z" fill="#4d4d4d"/></svg>

<svg xmlns="http://www.w3.org/2000/svg" viewBox="0 0 22 22">
  <defs id="defs3051">
    <style type="text/css" id="current-color-scheme">
      .ColorScheme-Text {
        color:#4d4d4d;
      }
      </style>
  </defs>
 <path 
    style="fill:currentColor;fill-opacity:1;stroke:none" 
    d="M 11 3 C 6.568 3 3 6.568 3 11 C 3 15.432 6.568 19 11 19 C 11.692084 19 12.360349 18.903948 13 18.740234 L 13 17.707031 C 12.366247 17.894565 11.696167 18 11 18 C 7.122 18 4 14.878 4 11 C 4 7.122 7.122 4 11 4 C 14.878 4 18 7.122 18 11 C 18 11.696167 17.894565 12.366247 17.707031 13 L 18.740234 13 C 18.903948 12.360349 19 11.692084 19 11 C 19 6.568 15.432 3 11 3 z M 11 5 C 7.676004 5 5 7.676 5 11 L 8 11 C 8 9.338 9.3380018 8 11 8 L 11 5 z M 11 9 C 9.8920013 9 9 9.892 9 11 C 9 12.108 9.8920013 13 11 13 C 12.107999 13 13 12.108 13 11 C 13 9.892 12.107999 9 11 9 z M 11 10 C 11.553999 10 12 10.446 12 11 C 12 11.554 11.553999 12 11 12 C 10.446001 12 10 11.554 10 11 C 10 10.446 10.446001 10 11 10 z M 14 11 C 14 11.352948 13.931268 11.687647 13.818359 12 L 16.910156 12 C 16.966308 11.675132 17 11.341682 17 11 L 14 11 z M 15.404297 13.041016 C 16.317305 13.226916 17 14.0305 17 15 C 17 15.5815 16.751059 16.100144 16.357422 16.464844 C 16.137081 16.203944 16 15.8698 16 15.5 C 16 15.4182 16.012911 15.339719 16.025391 15.261719 C 15.415754 15.603619 15 16.2486 15 17 C 15 18.108 15.892005 19 17 19 C 18.107995 19 19 18.108 19 17 C 19 14.9225 17.426169 13.245216 15.404297 13.041016 z M 13 13.224609 C 12.469123 13.70179 11.773296 14 11 14 L 11 17 C 11.703343 17 12.373894 16.872755 13 16.652344 L 13 13.224609 z "
    class="ColorScheme-Text"
    />  
</svg>
